app/dist/common/images/arabian-contracting-services-co.svg

<svg height="18" viewBox="0 0 18 18" width="18" xmlns="http://www.w3.org/2000/svg"><path d="m0 0h18v18h-18z" fill="#6659b0"/><path d="m4 13h4v-1h-1.82l.78-2.1c1 .12 2.12.15 3.24 0l1.18 3.1h2.62v-1h-1.6l-.88-2.37a8.1 8.1 0 0 0 3.48-1.9c-1.26.63-2.53 1-3.75 1.18l-1.81-4.91h-1.77l-1.87 4.57a9.52 9.52 0 0 1 -1.8-.67v1.3c.38.14.85.29 1.38.42zm5.87-3.96-1.3-3.44-1.25 3.3c.78.12 1.64.18 2.54.14z" fill="#fff" fill-rule="evenodd"/></svg>

<!-- by TradingView --><svg width="18" height="18" viewBox="0 0 18 18" xmlns="http://www.w3.org/2000/svg"><path fill="#6659B0" d="M0 0h18v18H0z"/><path fill-rule="evenodd" d="M4 13h4v-1H6.18l.78-2.1c1 .12 2.12.15 3.24 0l1.18 3.1H14v-1h-1.6l-.88-2.37A8.1 8.1 0 0 0 15 7.73c-1.26.63-2.53 1-3.75 1.18L9.44 4H7.67L5.8 8.57A9.52 9.52 0 0 1 4 7.9v1.3c.38.14.85.29 1.38.42L4 13Zm5.87-3.96L8.57 5.6 7.32 8.9c.78.12 1.64.18 2.54.14Z" fill="#fff"/></svg>
